X: 14310
T: Gallagher's Frolics
R: jig
M: 6/8
K: Edorian
D|:~E3 GFE|~B3 dBA|BdB BAB|GBG AFD|
~E3 GFE|BAB dBA|BAG FAF|1 GEE E2:|2 GEE E2||
B|:e2g gfe|g2b bge|dB/c/d fed|fad fed|
e2f gfe|dg/f/e dBA|BAG FAF|1 GEE E2:|2 GEE E2||

